!!!COM: Bartok, Bela
!!!OTL: Theme and Inversion
!!!ONM: 114
!!!OPR: Mikrokosmos, Vol. IV
!! Boosey & Hawkes Ltd. (London) 1955, copyright 1940 pp.34-35
!! irregular meter signature
**kern	**kern
*M4/4	*M4/4
=1	=1
8r	{4B
{8D	.
8E	4cn
8F#	.
8G#}	4B
{8AA	.
8BB	4A
8C#	.
=2	=2
8D}	4F#
{8FF#	.
8GG#	4E}
8AA#	.
4.BB	2r
8C#}	.
=3	=3
*M3/4	*M3/4
8r	{16b
.	16f#
8D~	16g#
.	16a#
16r	8b
{16D#	.
16E#	8cc#
16F##	.
8G#	4b~}
8A#	.
=4	=4
4G#~}	{16ee
.	16b
.	16cc#
.	16dd#
16r	8ee
{16G#	.
16A#	8ff#
16B#	.
8c#	4ee~}
8d#	.
=5	=5
*M4/4	*M4/4
4cn~}	{16aa
.	16gg
.	16ff#
.	16ee
16r	8ffn~
{16B	.
16c#	16ee
16d#	16ddn}
4e~}	16r
.	{16ee
.	16cc#
.	16a
16r	8ccn~
{16AA	.
16BB	16b
16C#	16g}
=6	=6
*M3/4	*M3/4
8Dn~}	16r
.	{16e
16r	16f#
{16D	16g#
16Cn	8a
16BB	.
16AAn	8cc#
16FF##	.
8GG#	4b~}
8DD#}	.
=7	=7
*M4/4	*M4/4
8r	{16bb
.	16aa
8DDn~	16gg#
.	16ff#
16r	8ggn~
{16C#	.
16D#	16ff#
16E#	16een}
4F#~}	16r
.	{16ff#
.	16dd#
.	16b
16r	8ddn~
{16B	.
16c#	16cc#
16d#	16a}
=8	=8
8e}	16r
.	{16f#
4fn~	16g#
.	16a#
.	16b}
.	{16f#
4e~	16g#
.	16a#
.	16b}
.	{16f#
4d~	16g#
.	16a#
.	16b}
.	{16e
8cn~	16f#
.	16g#
=9	=9
8r	8a}
{8A	8r
8B	{4ccn
8c#	.
8d#}	4b}
{8AA	.
8BB	{4a
8C#	.
=10	=10
*M3/4	*M3/4
8Dn}	4f#}
{8FF#	.
8GG#	4e
8AA#}	.
4r	4r
=11	=11
{16d	4r
16g	.
16fn	.
16e-	.
8d	16r
.	{16b-
8cn	16a-
.	16g-
4d~}	8fn
.	8e-
=12	=12
{16A	4fn~}
16d	.
16cn	.
16B-	.
8A	16r
.	{16ffn
8G	16ee-
.	16dd-
4A~}	8ccn
.	8b-
=13	=13
*M4/4	*M4/4
16r	4ccn~}
{16EE	.
16GG	.
16BB-	.
8AA~	16r
.	{16c#
16BBn	16d#
16Cn}	16e
16r	4cn~}
{16BB	.
16D	.
16Fn	.
8E~	16r
.	{16cc#
16F#	16dd#
16G}	16ee
=14	=14
*M3/4	*M3/4
16r	8ffn}
{16c#	.
16B	16r
16A	{16b
16G#}	16ccn
{16B	16dd
16A	16ee-}
16Gn	{16a
16F#}	16b-
{16A	16cc
16G	16dd-}
16Fn	{16g
=15	=15
16E}	16g#
{16Gn	16a#
16Fn	16b}
16E-}	{16fn
8r	16gn
.	16an
{4D	16b-
.	16ccn
.	8b-~
8C#}	16a
.	16g
=16	=16
16r	4f#~}
{16E	.
16D	.
16Cn	.
4BB	16r
.	{16fn
.	16g
.	16a
4AA#}	8g~
.	16f#
.	16e}
=17	=17
4r	4r
8r	4r
{8d#	.
8e	{4ccn
8f#	.
=18	=18
*M4/4	*M4/4
8g}	4b}
{8A	.
8B	{4a
8c#	.
8d}	4f#}
{8FF#	.
8GG#	{4e
8AA#	.
=19	=19
1BB}	1B}
==	==
*-	*-
